X: 4202
T: IRELAND'S OWN
R: Jig
%R: jig
B: James Kerr "Merry Melodies" v.4 p.23 #202
Z: 2016 John Chambers <jc:trillian.mit.edu>
M: 6/8
L: 1/8
K: D
g |\
fed dBc | d2B A2G | FAd dcd | fee efg |\
fed eBc | d2B A2G | FAd fec | edd d2 H:|
|: g |\
fdf a2a | fdf a2a | agg gff | fee efg |\
fdf a2a | fdf a2a | a^gf efg | (b3 a2) :|

%%sep 1 1 500
%%sep 1 1 500

